X: 192
T: Far Away in Australia
M:3/4
R:waltz
L:1/8
Z:added by Alf warnock alf0@rogers.com -
K:A
%%text Verse
"A"A2 c2 e2| e2 c2 e2| "D"f2 d2 f2| "A"e6|\
A2 c2 e2| "D"f4 e2| "E7"B6-|B4 e2|
"D"a2 f2 a2| "C#m"g2 e2 g2| "Bm"f2 d2 f2| "A"e4 fg|\
a2 e2 f2| "E7"c4 B2| "A"A6-|A6|
%%text Chorus
"A"A4 B2| c2 e2 f2| "E7"c6| B6|\
"D"a2 g2 f2| "C#m"g2 f2 e2| "Bm"f6-|f4 g2|
"A"a2 g2 f2| "C#m"g2 f2 e2| "D"f2 e2 f2| "A"c4 A2|\
c2 e2 f2| "E7"c4 B2| "A"A6-|A6|

